X:1
T:Morning Light - Piano
C:Groove Link
M:4/4
L:1/8
Q:1/4=88
K:G
%%MIDI program 0
% Gentle acoustic piano part - chords with melodic touches
|: [G,2B,2D2]G2 [G,2B,2D2]A2 | [G,2B,2D2]B2 [A,2C2E2]A2 |
   [E,2G,2B,2]G2 [E,2G,2B,2]F2 | [D,2F,2A,2]D2 [D,2F,2A,2]E2 |
   [C,2E,2G,2]E2 [C,2E,2G,2]D2 | [A,,2C,2E,2]C2 [A,,2C,2E,2]B,2 |
   [D,2F,2A,2]A,2 [D,2F,2A,2]B,2 | [G,,2B,,2D,2]G,4 z4 :|
